X:582
T:Childgrove
M:C
L:1/8
Q:1/8=170
K:G
B2|"Em"B2 e2 e2 f2|"Em"g4 f2 e2|"D"a3 g f2 e2|"Bm"f3 e dc B2|
"Em"B2 e2 e2 f2|"Em"g4 f2 b2|"D"a3 g fgfe|"Em"e6:||
ga|"Em"b2 g2 g2 b2|"D"a2 f2 f2 a2|"Em"g2 e2 efge|
"Bm"f2 B4 ga|"Em"b2 g2 g2 b2|"D"a2 g2 fgaf|
"Em"g2 fe f2 e^d|"Em"e6:||
